Simply-Black-Circles/scalable/categories/applications-java.svg

<svg xmlns="http://www.w3.org/2000/svg" width="48" height="48" viewBox="0 0 12.7 12.7"><path d="M5.7 4.51c-1.82 0-3.36.43-3.8 1 .45.56 1.98.98 3.8.98 1.83 0 3.37-.42 3.82-.98-.45-.57-1.99-1-3.81-1z" opacity=".75" fill="#f60"/><path d="M6.34.08A6.27 6.27 0 0 0 .08 6.34a6.27 6.27 0 0 0 6.26 6.27 6.27 6.27 0 0 0 6.27-6.27A6.27 6.27 0 0 0 6.34.08zM6.33 1A5.39 5.39 0 0 1 11.7 6.4a5.39 5.39 0 0 1-5.38 5.39 5.39 5.39 0 0 1-5.4-5.4 5.39 5.39 0 0 1 5.4-5.38zM5.7 3.6c-2.08 0-3.79.6-3.91 1.36h-.01V5.9c.03 2.43 1.77 4.39 3.92 4.39 1.28 0 2.42-.71 3.14-1.8.8-.08 2.31-.34 2.2-2.2a.7.7 0 0 0-.08-.29.73.73 0 0 0-.2-.22c-.29-.2-.73-.24-1.15-.24V4.97c-.13-.76-1.83-1.36-3.91-1.36zm0 .97c1.62 0 2.98.4 3.38.94-.4.54-1.77.94-3.38.94-1.62 0-2.98-.4-3.38-.94.4-.54 1.76-.94 3.38-.94zM9.6 6.2h.8c.03 1.3-.7 1.46-1.13 1.45.18-.45.29-.93.33-1.45z" fill="#1a1a1a"/></svg>

<?xml version="1.0" encoding="UTF-8" standalone="no"?>
<svg
   xmlns:dc="http://purl.org/dc/elements/1.1/"
   xmlns:cc="http://creativecommons.org/ns#"
   xmlns:rdf="http://www.w3.org/1999/02/22-rdf-syntax-ns#"
   xmlns:svg="http://www.w3.org/2000/svg"
   xmlns="http://www.w3.org/2000/svg"
   xmlns:sodipodi="http://sodipodi.sourceforge.net/DTD/sodipodi-0.dtd"
   xmlns:inkscape="http://www.inkscape.org/namespaces/inkscape"
   width="48"
   height="48"
   viewBox="0 0 12.7 12.7"
   version="1.1"
   id="svg6"
   sodipodi:docname="applications-java.svg"
   inkscape:version="0.92.4 (5da689c313, 2019-01-14)">
  <metadata
     id="metadata12">
    <rdf:RDF>
      <cc:Work
         rdf:about="">
        <dc:format>image/svg+xml</dc:format>
        <dc:type
           rdf:resource="http://purl.org/dc/dcmitype/StillImage" />
        <dc:title></dc:title>
      </cc:Work>
    </rdf:RDF>
  </metadata>
  <defs
     id="defs10" />
  <sodipodi:namedview
     pagecolor="#ffffff"
     bordercolor="#666666"
     borderopacity="1"
     objecttolerance="10"
     gridtolerance="10"
     guidetolerance="10"
     inkscape:pageopacity="0"
     inkscape:pageshadow="2"
     inkscape:window-width="1087"
     inkscape:window-height="480"
     id="namedview8"
     showgrid="false"
     inkscape:zoom="4.9166667"
     inkscape:cx="2.1355932"
     inkscape:cy="24"
     inkscape:window-x="0"
     inkscape:window-y="25"
     inkscape:window-maximized="0"
     inkscape:current-layer="svg6" />
  <path
     d="m 5.7,4.51 c -1.82,0 -3.36,0.43 -3.8,1 0.45,0.56 1.98,0.98 3.8,0.98 1.83,0 3.37,-0.42 3.82,-0.98 -0.45,-0.57 -1.99,-1 -3.81,-1 z"
     id="path2"
     inkscape:connector-curvature="0"
     style="opacity:0.75;fill:#ff6600" />
  <path
     d="M 6.34,0.08 A 6.27,6.27 0 0 0 0.08,6.34 6.27,6.27 0 0 0 6.34,12.61 6.27,6.27 0 0 0 12.61,6.34 6.27,6.27 0 0 0 6.34,0.08 Z M 6.33,1 A 5.39,5.39 0 0 1 11.7,6.4 5.39,5.39 0 0 1 6.32,11.79 5.39,5.39 0 0 1 0.92,6.39 5.39,5.39 0 0 1 6.32,1.01 Z M 5.7,3.6 C 3.62,3.6 1.91,4.2 1.79,4.96 H 1.78 V 5.9 c 0.03,2.43 1.77,4.39 3.92,4.39 1.28,0 2.42,-0.71 3.14,-1.8 0.8,-0.08 2.31,-0.34 2.2,-2.2 A 0.7,0.7 0 0 0 10.96,6 0.73,0.73 0 0 0 10.76,5.78 C 10.47,5.58 10.03,5.54 9.61,5.54 V 4.97 C 9.48,4.21 7.78,3.61 5.7,3.61 Z m 0,0.97 c 1.62,0 2.98,0.4 3.38,0.94 C 8.68,6.05 7.31,6.45 5.7,6.45 4.08,6.45 2.72,6.05 2.32,5.51 2.72,4.97 4.08,4.57 5.7,4.57 Z M 9.6,6.2 h 0.8 C 10.43,7.5 9.7,7.66 9.27,7.65 9.45,7.2 9.56,6.72 9.6,6.2 Z"
     id="path4"
     inkscape:connector-curvature="0"
     style="fill:#1a1a1a" />
</svg>
